X: 1
T:Gan Ainm
M:4/4
L:1/8
K:G
ge|dB3 BAGB|A2FA EAD2|E2cA dcBd|BAGB A2ge|
dB3 BAGB|A2FA EAD2|E2cA BAGB|1 AGFA G2ge|2 AGFA G2Bc|
dgge dcBd|cBAG A3B|cdeg f2af|gedB c2Bc|
dgge dcBd|cBAG A2AB|cdeg fgaf|1 g3f g2Bc|2 g3f g4|
